lib/healthicons/icons/solid/body/tooth.svg

<svg fill="none" height="48" viewBox="0 0 48 48" width="48" xmlns="http://www.w3.org/2000/svg"><path clip-rule="evenodd" d="m20.9591 9.2814c-4.3373-2.44124-8.1799-1.29333-11.37376 2.5843-3.08256 3.7426-.98089 10.4887.52996 15.3382.3602 1.1563.6869 2.2048.9016 3.079 1.1155 4.5408 2.1827 7.3703 4.6162 9.4181 1.2052 1.014 2.5717-.7286 4.0134-2.5672 1.25-1.594 2.5565-3.2601 3.8633-3.2641 1.2856-.0039 2.5714 1.6596 3.804 3.2542 1.4228 1.8407 2.7748 3.5896 3.9736 2.5771 1.8587-1.5699 2.7029-2.7217 3.7242-5.956 1.1138-3.5271 2.9122-7.745 4.342-12.607 1.006-3.4209 1.1265-6.9035-1.7728-10.2653-4.1394-4.79955-9.8768-2.32047-12.5476-.7331l3.6176 3.1012c.4193.3594.4679.9907.1084 1.41-.3594.4193-.9907.4679-1.41.1084z" fill="#333" fill-rule="evenodd"/></svg>

<svg width="48" height="48" viewBox="0 0 48 48" fill="none" xmlns="http://www.w3.org/2000/svg">
<path fill-rule="evenodd" clip-rule="evenodd" d="M20.9591 9.2814C16.6218 6.84016 12.7792 7.98807 9.58534 11.8657C6.50278 15.6083 8.60445 22.3544 10.1153 27.2039C10.4755 28.3602 10.8022 29.4087 11.0169 30.2829C12.1324 34.8237 13.1996 37.6532 15.6331 39.701C16.8383 40.715 18.2048 38.9724 19.6465 37.1338C20.8965 35.5398 22.203 33.8737 23.5098 33.8697C24.7954 33.8658 26.0812 35.5293 27.3138 37.1239C28.7366 38.9646 30.0886 40.7135 31.2874 39.701C33.1461 38.1311 33.9903 36.9793 35.0116 33.745C36.1254 30.2179 37.9238 26 39.3536 21.138C40.3596 17.7171 40.4801 14.2345 37.5808 10.8727C33.4414 6.07315 27.704 8.55223 25.0332 10.1396L28.6508 13.2408C29.0701 13.6002 29.1187 14.2315 28.7592 14.6508C28.3998 15.0701 27.7685 15.1187 27.3492 14.7592L20.9591 9.2814Z" fill="#333333"/>
</svg>
